X:1
T:Good-Bye, My Lover, Good-Bye
T:Good-Bye, My Lover, Good-Bye
%%score [ 1 2 3 4 ]
L:1/8
M:6/8
K:G
V:1 treble nm="Soprano"
V:2 treble nm="Alto"
V:3 treble-8 nm="Tenor"
V:4 bass nm="Bass"
V:1
 B | B2 B G2 G | B2 B G2 B | B2 B B c B | A3- A z A | A2 A F2 F | A2 A F2 d | d2 d c B A | %8
w: 1.The|ship is sail- ing|down the bay, Good-|bye, my lov- er, good-|bye; _ We|may not meet for|man- y~a day, Good-|bye, my lov- er, good-|
w: 2.Then|cheer up till we|meet a- gain, *||* * I'll|try to bear my|wear- y pain, *||
 G3- G2 B | B2 B G2 G | B2 B G2 B | B2 B B c B | A3- A z A | A2 A F2 F | A2 A F2 d | d2 d c B A | %16
w: bye! _ My|heart will ev- er-|more be true, Good-|bye, my lov- er, good-|bye; _ Tho'|now we sad- ly|say a- dieu, Good-|bye, my lov- er, good-|
w: * * Tho'|far I roam a-|cross the sea, *||* * My|ev- 'ry thought of|you shall be, *||
 G3- G2 z ||[M:4/4] B4 G2 c2 | B4 G4 | A4 F2 c2 | B4 G4 | B4 G2 c2 | B4 G3 G ||[M:6/8] A2 A A B A | %24
w: bye! *|By- low, my|ba- by,|By- low, my|ba- by,|By- low, my|ba- by, Good|bye, my lov- er, good-|
w: ||||||||
 G2- G z z |] %25
w: bye! _|
w: |
V:2
 z | z6 | z4 z G | G2 G G G G | F3- F z2 | z6 | z4 z F | F2 F F F F | G3- G2 z | z6 | z4 z G | %11
w: ||Good-|bye, my lov- er, good-|bye; _||Good-|bye, my lov- er, good-|bye! _||Good-|
 G2 G G G G | F3- F z2 | z6 | z4 z F | F2 F F F F | G3- G2 z ||[M:4/4] G4 G2 G2 | G4 G4 | %19
w: bye, my lov- er, good-|bye; _||Good-|bye, my lov- er, good-|bye! _|By- low, my|ba- by,|
 D4 D2 F2 | G4 G4 | G4 G2 G2 | G4 G3 G ||[M:6/8] F2 F F F F | G2- G z z |] %25
w: By- low, my|ba- by,|By- low, my|ba- by, Good|bye, my lov- er, good-|bye! _|
V:3
 z | z6 | z4 z d | d2 d d e d | d3- d z2 | z6 | z4 z d | d2 d e d c | B3- B2 z | z6 | z4 z d | %11
w: ||Good-|bye, my lov- er, good-|bye; _||Good-|bye, my lov- er, good-|bye! _||Good-|
 d2 d d e d | d3- d z2 | z6 | z4 z d | d2 d e d c | B3- B2 z ||[M:4/4] d4 B2 e2 | d4 B4 | %19
w: bye, my lov- er, good-|bye; _||Good-|bye, my lov- er, good-|bye! _|By- low, my|ba- by,|
 c4 A2 e2 | d4 B4 | d4 B2 e2 | d4 B3 B ||[M:6/8] c2 c c d c | B2- B z z |] %25
w: By- low, my|ba- by,|By- low, my|ba- by, Good|bye, my lov- er, good-|bye! _|
V:4
 z | z6 | z4 z G, | G,2 G, G, G, G, | D,3- D, z2 | z6 | z4 z D, | D,2 D, D, D, D, | G,3- G,2 z | %9
w: ||Good-|bye, my lov- er, good-|bye; _||Good-|bye, my lov- er, good-|bye! _|
 z6 | z4 z G, | G,2 G, G, G, G, | D,3- D, z2 | z6 | z4 z D, | D,2 D, D, D, D, | G,3- G,2 z || %17
w: |Good-|bye, my lov- er, good-|bye; _||Good-|bye, my lov- er, good-|bye! _|
[M:4/4] G,4 G,2 G,2 | G,4 G,4 | D,4 D,2 D,2 | G,4 G,4 | G,4 G,2 G,2 | G,4 G,3 G, || %23
w: By- low, my|ba- by,|By- low, my|ba- by,|By- low, my|ba- by, Good|
[M:6/8] D,2 D, D, D, D, | G,2- G, z z |] %25
w: bye, my lov- er, good-|bye! _|

